icons/material-file/google.svg

<svg width="16" height="16" viewBox="0 0 16 16" fill="none" xmlns="http://www.w3.org/2000/svg">
  <path opacity="0.987" fill-rule="evenodd" clip-rule="evenodd"
    d="M7.20901 1.06115C7.93384 0.979611 8.36337 0.97962 9.1419 1.06115C10.5484 1.27904 11.7654 1.88593 12.7929 2.8818C12.1226 3.51502 11.4604 4.15813 10.8063 4.81115C9.55462 3.75152 8.15865 3.50696 6.61841 4.07745C5.48753 4.59699 4.70006 5.43938 4.25599 6.60462C3.53205 6.06575 2.81617 5.51322 2.10834 4.94702C2.05744 4.92078 2.00375 4.91172 1.94727 4.91984C3.07055 2.75673 4.82447 1.47049 7.20901 1.06115Z"
    fill="#F44336" />
  <path opacity="0.997" fill-rule="evenodd" clip-rule="evenodd"
    d="M1.94632 4.91987C2.0028 4.91175 2.05649 4.92081 2.10739 4.94705C2.81522 5.51325 3.53111 6.06579 4.25504 6.60466C4.14103 7.05917 4.06945 7.52112 4.04028 7.99053C4.06452 8.4433 4.13611 8.8871 4.25504 9.32205C3.50546 9.91928 2.75378 10.5171 2.00001 11.1155C1.01823 9.06444 1.00033 6.99922 1.94632 4.91987Z"
    fill="#FFC107" />
  <path opacity="0.999" fill-rule="evenodd" clip-rule="evenodd"
    d="M12.6849 13.2894C11.9824 12.6709 11.2486 12.0912 10.4835 11.5503C11.2495 11.0085 11.7148 10.2658 11.8795 9.32202C10.6267 9.32202 9.37387 9.32202 8.12109 9.32202C8.12109 8.45246 8.12109 7.58289 8.12109 6.71333C10.2869 6.69523 12.4525 6.71333 14.6177 6.76768C15.0289 8.99762 14.5547 11.0085 13.1949 12.8003C13.0319 12.9744 12.8619 13.1375 12.6849 13.2894Z"
    fill="#448AFF" />
  <path opacity="0.993" fill-rule="evenodd" clip-rule="evenodd"
    d="M4.25503 9.32227C5.07506 11.3596 6.57842 12.3107 8.7651 12.1755C9.38862 12.1011 9.96134 11.8928 10.4832 11.5505C11.2483 12.0915 11.9821 12.6712 12.6846 13.2897C11.532 14.3068 10.1897 14.8684 8.65772 14.9744C8.30872 15.0016 8.04027 15.0016 7.63758 14.9744C5.09341 14.6748 3.21421 13.3885 2 11.1157C2.75377 10.5173 3.50545 9.91949 4.25503 9.32227Z"
    fill="#43A047" />
</svg>

<svg xmlns="http://www.w3.org/2000/svg" width="16" height="16" fill="none" viewBox="0 0 16 16"><path fill="#f44336" fill-rule="evenodd" d="M7.209 1.061c.725-.081 1.154-.081 1.933 0a6.57 6.57 0 0 1 3.65 1.82 100 100 0 0 0-1.986 1.93q-1.876-1.59-4.188-.734-1.696.78-2.362 2.528a78 78 0 0 1-2.148-1.658.26.26 0 0 0-.16-.027Q3.631 1.675 7.208 1.06" clip-rule="evenodd" opacity=".987"/><path fill="#ffc107" fill-rule="evenodd" d="M1.946 4.92q.085-.013.161.027a78 78 0 0 0 2.148 1.658A7.6 7.6 0 0 0 4.04 7.99q.037.678.215 1.331L2 11.116Q.527 8.038 1.946 4.92" clip-rule="evenodd" opacity=".997"/><path fill="#448aff" fill-rule="evenodd" d="M12.685 13.29a26 26 0 0 0-2.202-1.74q1.15-.812 1.396-2.228H8.122V6.713q3.25-.027 6.497.055.616 3.345-1.423 6.032a7 7 0 0 1-.51.49" clip-rule="evenodd" opacity=".999"/><path fill="#43a047" fill-rule="evenodd" d="M4.255 9.322q1.23 3.057 4.51 2.854a3.94 3.94 0 0 0 1.718-.626q1.148.812 2.202 1.74a6.62 6.62 0 0 1-4.027 1.684 6.4 6.4 0 0 1-1.02 0Q3.82 14.524 2 11.116z" clip-rule="evenodd" opacity=".993"/></svg>
